static/logos/godaddy-glyph-color.svg

<svg width="50" height="45" viewBox="0 0 50 45" fill="none" xmlns="http://www.w3.org/2000/svg">
<g clip-path="url(#clip0_1_2634)">
<mask id="mask0_1_2634" style="mask-type:alpha" maskUnits="userSpaceOnUse" x="0" y="0" width="50" height="45">
<path d="M0 0H50V44.5652H0V0Z" fill="white"/>
</mask>
<g mask="url(#mask0_1_2634)">
<path fill-rule="evenodd" clip-rule="evenodd" d="M44.8015 21.8371C44.1327 24.3839 43.0488 26.8679 41.5805 29.2204C40.6429 30.7226 39.587 32.1057 38.4278 33.3579C39.751 27.9593 38.8555 21.3459 35.6097 15.144C35.3815 14.7078 34.8543 14.5634 34.4371 14.8243L24.3293 21.1469C23.9424 21.3891 23.8245 21.8993 24.0663 22.2869L25.5484 24.661C25.7902 25.0485 26.3 25.1662 26.6871 24.9242L33.2381 20.8262C33.4577 21.456 33.6545 22.09 33.8221 22.7285C34.4525 25.128 34.6873 27.4697 34.5199 29.6885C34.2086 33.819 32.5289 37.0374 29.7898 38.7507C28.422 39.6064 26.8327 40.0595 25.1055 40.1088C25.068 40.1081 25.0298 40.1094 24.9923 40.1088C24.9601 40.1088 24.9275 40.1081 24.8953 40.1088C23.1678 40.0597 21.5784 39.6064 20.2101 38.7505C17.4713 37.0374 15.7913 33.819 15.48 29.6885C15.3128 27.4697 15.5476 25.128 16.1778 22.7285C16.8468 20.1817 17.9302 17.6977 19.3989 15.3453C20.8672 12.9928 22.6224 10.9288 24.616 9.21063C26.4941 7.59169 28.4936 6.35395 30.559 5.53175C34.4042 4.00106 38.0301 4.10182 40.7692 5.81515C43.508 7.52827 45.188 10.7466 45.4993 14.8771C45.6667 17.0959 45.4319 19.4376 44.8015 21.8371ZM8.4196 29.2204C6.95111 26.8679 5.86743 24.3839 5.19846 21.8371C4.56826 19.4376 4.33347 17.0959 4.50066 14.8771C4.81216 10.7466 6.49191 7.52827 9.23097 5.81515C11.9698 4.10182 15.5959 4.00106 19.4409 5.53175C20.0198 5.76212 20.5926 6.03003 21.1599 6.32595C19.1103 8.18501 17.2274 10.4191 15.6256 12.9852C11.3839 19.7802 10.0938 27.3278 11.5727 33.3585C10.4136 32.1063 9.35748 30.7228 8.4196 29.2204ZM43.1268 2.03784C37.9303 -1.21276 31.0899 -0.440198 24.9983 3.39968C18.9077 -0.438925 12.069 -1.21212 6.87313 2.03806C-1.336 7.17296 -2.33301 20.3998 4.64624 31.5807C9.79252 39.8247 17.8378 44.6539 25.0004 44.564C32.1625 44.6535 40.2076 39.8245 45.3537 31.5807C52.3329 20.3998 51.3361 7.17296 43.1268 2.03784Z" fill="#1BDBDB"/>
</g>
</g>
<defs>
<clipPath id="clip0_1_2634">
<rect width="50" height="44.5652" fill="white"/>
</clipPath>
</defs>
</svg>

<svg xmlns="http://www.w3.org/2000/svg" width="71.111" height="64" fill="none" viewBox="0 0 50 45"><g clip-path="url(#a)"><mask id="b" width="50" height="45" x="0" y="0" maskUnits="userSpaceOnUse" style="mask-type:alpha"><path fill="#fff" d="M0 0h50v44.565H0V0Z"/></mask><g mask="url(#b)"><path fill="#1BDBDB" fill-rule="evenodd" d="M44.801 21.837c-.668 2.547-1.752 5.03-3.22 7.383a27.576 27.576 0 0 1-3.153 4.138c1.323-5.399.428-12.012-2.818-18.214a.817.817 0 0 0-1.173-.32L24.33 21.147a.828.828 0 0 0-.263 1.14l1.482 2.374a.826.826 0 0 0 1.14.263l6.55-4.098c.22.63.416 1.264.584 1.902.63 2.4.865 4.742.698 6.96-.311 4.131-1.991 7.35-4.73 9.063-1.368.855-2.957 1.309-4.684 1.358H24.895c-1.727-.05-3.317-.503-4.685-1.358-2.739-1.714-4.419-4.932-4.73-9.062-.167-2.22.068-4.561.698-6.96.669-2.547 1.752-5.031 3.22-7.384 1.47-2.352 3.224-4.416 5.218-6.134 1.878-1.62 3.878-2.857 5.943-3.68 3.845-1.53 7.471-1.43 10.21.284 2.739 1.713 4.419 4.932 4.73 9.062.168 2.219-.067 4.56-.698 6.96ZM8.42 29.22c-1.469-2.352-2.553-4.836-3.222-7.383-.63-2.4-.865-4.741-.697-6.96.311-4.13 1.99-7.349 4.73-9.062 2.739-1.713 6.365-1.814 10.21-.283.579.23 1.152.498 1.719.794a31.518 31.518 0 0 0-5.534 6.66c-4.242 6.794-5.532 14.342-4.053 20.373A27.599 27.599 0 0 1 8.42 29.22ZM43.127 2.038C37.93-1.212 31.09-.44 24.998 3.4 18.908-.44 12.07-1.212 6.873 2.038-1.336 7.173-2.333 20.4 4.646 31.581 9.793 39.825 17.838 44.654 25 44.564c7.163.09 15.208-4.74 20.354-12.983C52.333 20.4 51.336 7.173 43.127 2.038Z" clip-rule="evenodd"/></g></g><defs><clipPath id="a"><path fill="#fff" d="M0 0h50v44.565H0z"/></clipPath></defs></svg>
